src/assets/svg/icons/fa/nuevos/classic/duotone/face-grin-wide classic duotone.svg

<svg xmlns="http://www.w3.org/2000/svg" viewBox="0 0 512 512"><!--! Font Awesome Pro 6.4.0 by @fontawesome - https://fontawesome.com License - https://fontawesome.com/license (Commercial License) Copyright 2023 Fonticons, Inc. --><defs><style>.fa-secondary{opacity:.4}</style></defs><path class="fa-primary" d="M176 256c17.7 0 32-28.7 32-64s-14.3-64-32-64s-32 28.7-32 64s14.3 64 32 64zm160 0c17.7 0 32-28.7 32-64s-14.3-64-32-64s-32 28.7-32 64s14.3 64 32 64z"/><path class="fa-secondary" d="M256 512A256 256 0 1 0 256 0a256 256 0 1 0 0 512zM388.1 312.8c12.3-3.8 24.3 6.9 19.3 18.7C382.4 390.6 324.2 432 256.3 432s-126.2-41.4-151.1-100.5c-5-11.8 7-22.5 19.3-18.7c39.7 12.2 84.5 19 131.8 19s92.1-6.8 131.8-19zM208 192c0 35.3-14.3 64-32 64s-32-28.7-32-64s14.3-64 32-64s32 28.7 32 64zm128 64c-17.7 0-32-28.7-32-64s14.3-64 32-64s32 28.7 32 64s-14.3 64-32 64z"/></svg>

<svg xmlns="http://www.w3.org/2000/svg" viewBox="0 0 512 512"><defs><style>.fa-secondary{opacity:.4}</style></defs><path class="fa-primary" d="M144 192C144 156.7 158.3 128 176 128C193.7 128 208 156.7 208 192C208 227.3 193.7 256 176 256C158.3 256 144 227.3 144 192zM304 192C304 156.7 318.3 128 336 128C353.7 128 368 156.7 368 192C368 227.3 353.7 256 336 256C318.3 256 304 227.3 304 192z"/><path class="fa-secondary" d="M0 256C0 114.6 114.6 0 256 0C397.4 0 512 114.6 512 256C512 397.4 397.4 512 256 512C114.6 512 0 397.4 0 256zM256.3 331.8C208.9 331.8 164.1 324.9 124.5 312.8C112.2 309 100.2 319.7 105.2 331.5C130.1 390.6 188.4 432 256.3 432C324.2 432 382.4 390.6 407.4 331.5C412.4 319.7 400.4 309 388.1 312.8C348.4 324.9 303.7 331.8 256.3 331.8H256.3zM176 128C158.3 128 144 156.7 144 192C144 227.3 158.3 256 176 256C193.7 256 208 227.3 208 192C208 156.7 193.7 128 176 128zM336 256C353.7 256 368 227.3 368 192C368 156.7 353.7 128 336 128C318.3 128 304 156.7 304 192C304 227.3 318.3 256 336 256z"/></svg>
